assets/info-fill.svg

<svg xmlns="http://www.w3.org/2000/svg" fill="none" viewBox="0 0 28 28">
  <path fill="#2A2238" fill-rule="evenodd" d="M28 14c0 7.732-6.268 14-14 14-7.73199 0-14-6.268-14-14C0 6.26801 6.26801 0 14 0c7.732 0 14 6.26801 14 14ZM15 6c0 .55228-.4477 1-1 1s-1-.44772-1-1 .4477-1 1-1 1 .44772 1 1Zm0 15.8V9h-2v12.8c.3333 1.6 1.6667 1.6 2 0Z" clip-rule="evenodd"/>
</svg>

<svg width="28" height="28" viewBox="0 0 28 28" fill="none" xmlns="http://www.w3.org/2000/svg">
<path fill-rule="evenodd" clip-rule="evenodd" d="M28 14C28 21.732 21.732 28 14 28C6.26801 28 0 21.732 0 14C0 6.26801 6.26801 0 14 0C21.732 0 28 6.26801 28 14ZM15 6C15 6.55228 14.5523 7 14 7C13.4477 7 13 6.55228 13 6C13 5.44772 13.4477 5 14 5C14.5523 5 15 5.44772 15 6ZM15 21.8V9H13V21.8C13.3333 23.4 14.6667 23.4 15 21.8Z" fill="#2A2238"/>
</svg>
